assets/logos/akeneo.svg

<svg width="248" height="248" viewBox="0 0 248 248" fill="none" xmlns="http://www.w3.org/2000/svg">
<path d="M37.0371 1.20803C37.8896 1.06668 40.7459 1.01976 41.6495 1.017C54.3641 0.979288 67.087 1.03846 79.8023 1.03908L158.9 1.02406L193.779 1.01486C195.986 1.01486 198.182 0.980822 200.4 1.01578C205.704 1.10224 211.212 0.760054 216.445 1.7667C228.556 4.09612 239.013 12.4516 244.421 23.4858C247.455 29.6753 247.838 35.626 247.899 42.4416L247.89 160.733L247.914 193.395C247.93 209.772 249.66 223.95 236.802 236.193C227.846 244.721 224.175 246.763 211.596 246.873C168.185 246.419 124.065 246.818 80.5993 246.824L46.7123 246.833C32.8185 246.849 26.3294 248.756 14.8696 239.272C6.61826 232.551 1.42683 222.779 0.473301 212.169C-0.334166 203.59 0.135866 186.545 0.137397 177.353L0.143219 112.671L0.135257 62.2827C0.134951 55.6151 0.190982 48.8908 0.176897 42.2297C0.131272 20.3825 14.9376 3.11892 37.0371 1.20803Z" fill="#A545FE"/>
<path d="M145.625 45C150.018 49.1183 154.865 52.0311 159.02 55.6931C162.691 58.9283 169.282 64.6934 172.618 68.2216C179.605 75.6108 186.922 83.8245 191.683 92.7474C198.295 105.138 198.709 113.634 193.098 126.629C191.492 130.347 189.836 134.245 187.92 137.881C185.656 142.177 182.816 146.43 180.595 150.726C176.873 157.929 173.612 166.465 171.395 174.259C168.657 183.886 168.981 194.079 169.167 204C150.384 189.638 130.7 187.515 107.847 187.072C99.8746 186.918 89.1289 186.157 81.5197 184.066C77.4476 182.851 72.4895 180.116 69.4323 177.267C64.4053 172.583 57.0173 159.776 54.8619 153.448C49.9966 139.16 44.6294 118.536 44 103.688C47.3055 106.767 54.1346 110.854 58.0588 113.373C79.7082 127.27 105.567 136.535 131.508 136.791C133.254 133.098 135.36 126.352 136.905 122.386C144.591 102.663 147.476 83.7533 146.543 62.5797C146.288 56.7954 145.847 50.8473 145.625 45Z" fill="white"/>
</svg>

<svg xmlns="http://www.w3.org/2000/svg" width="248" height="248" fill="none" viewBox="0 0 248 248"><path fill="#a545fe" d="M37.037 1.208c.853-.141 3.709-.188 4.613-.191 12.714-.038 25.437.021 38.152.022l79.098-.015 34.879-.01c2.207 0 4.403-.033 6.621.002 5.304.086 10.812-.256 16.045.75 12.111 2.33 22.568 10.686 27.976 21.72 3.034 6.19 3.417 12.14 3.478 18.956l-.009 118.291.024 32.662c.016 16.377 1.746 30.555-11.112 42.798-8.956 8.528-12.627 10.57-25.206 10.68-43.411-.454-87.531-.055-130.997-.049l-33.887.009c-13.894.016-20.383 1.923-31.842-7.561A39.52 39.52 0 0 1 .473 212.169c-.807-8.579-.337-25.624-.336-34.816l.006-64.682-.008-50.388c0-6.668.056-13.392.042-20.053C.13 20.383 14.937 3.119 37.037 1.208"/><path fill="#fff" d="M145.625 45c4.393 4.118 9.24 7.031 13.395 10.693 3.671 3.235 10.262 9 13.598 12.529 6.987 7.389 14.304 15.603 19.065 24.525 6.612 12.391 7.026 20.887 1.415 33.882-1.606 3.718-3.262 7.616-5.178 11.252-2.264 4.296-5.104 8.549-7.325 12.845-3.722 7.203-6.983 15.739-9.2 23.533-2.738 9.627-2.414 19.82-2.228 29.741-18.783-14.362-38.467-16.485-61.32-16.928-7.972-.154-18.718-.915-26.327-3.006-4.072-1.215-9.03-3.95-12.088-6.799-5.027-4.684-12.415-17.491-14.57-23.819-4.865-14.288-10.233-34.912-10.862-49.76 3.306 3.079 10.135 7.166 14.059 9.685 21.65 13.897 47.508 23.162 73.449 23.418 1.746-3.693 3.852-10.439 5.397-14.405 7.686-19.723 10.571-38.633 9.638-59.806-.255-5.785-.696-11.733-.918-17.58"/></svg>
